assets/Right-facing fist/Default/Flat/right-facing_fist_flat_default.svg

<svg width="32" height="32" viewBox="0 0 32 32" fill="none" xmlns="http://www.w3.org/2000/svg">
<path d="M15 14H26V23.8354C27.7471 23.3003 29.1407 22.2819 29.75 21.6875V22.0339C29.0406 24.3284 26.9023 25.99 24.38 25.99H21.8502C21.7461 25.6149 21.6087 25.2997 21.4087 25H15V14Z" fill="#D67D00"/>
<path d="M30 12.63V20.37C30 20.9531 29.9114 21.5152 29.747 22.0435C29.748 22.0403 29.749 22.0371 29.75 22.0339V21.6875C28.8958 22.5208 26.5 24.1875 23.75 24.1875C21.1233 24.1875 19.1619 22.7668 18.4103 21.9132C18.9691 20.7188 19.5648 20.0931 20.51 19.8125C21.0827 19.6425 21.7109 19.581 22.2886 19.5244C22.6666 19.4873 23.0231 19.4524 23.3281 19.3906C24.0994 19.2344 23.99 17.99 23.99 17.99C23.99 17.9354 23.9855 17.8819 23.9769 17.8298C24.0576 16.9533 24.7297 15.705 25.5952 14.7854C25.7552 14.6154 25.639 14.3234 25.407 14.3495C23.6195 14.5511 22.612 15.5599 21.863 17.01H16.82C16.35 17.01 15.99 17.42 16.05 17.89C16.2033 18.9632 17.6018 20.846 18.3167 21.8022L18.3125 21.7969C18.3125 21.7969 18.7252 22.6347 19.8906 23.5312C21.0955 24.4581 21.5826 25.026 21.8502 25.99H21.83C22.2 27.05 21.97 28.27 21.12 29.11C19.95 30.28 18.05 30.28 16.88 29.11L14.4 26.63C13.99 26.22 13.43 25.99 12.85 25.99C9.45001 25.99 6.62 23.51 6.09 20.25C6.07 20.1 5.94 19.99 5.78 19.99H3.96875C2.84375 19.99 2 19.5625 2 18.0625V10.9062C2 9 2.94 8 4.9375 8H25.37C27.93 8 30 10.07 30 12.63Z" fill="#FFC83D"/>
</svg>

<svg xmlns="http://www.w3.org/2000/svg" width="32" height="32" fill="none"><path fill="#D67D00" d="M15 14h11v9.835c1.747-.535 3.14-1.553 3.75-2.148v.347a5.621 5.621 0 0 1-5.37 3.956h-2.53a3.332 3.332 0 0 0-.441-.99H15V14Z"/><path fill="#FFC83D" d="M30 12.63v7.74c0 .583-.089 1.145-.253 1.674l.003-.01v-.346c-.854.833-3.25 2.5-6 2.5-2.627 0-4.588-1.421-5.34-2.275.56-1.194 1.155-1.82 2.1-2.1.573-.17 1.2-.232 1.779-.289.378-.037.734-.072 1.04-.133.77-.157.661-1.401.661-1.401a.983.983 0 0 0-.013-.16c.08-.877.753-2.125 1.618-3.045.16-.17.044-.462-.188-.435-1.788.201-2.795 1.21-3.544 2.66H16.82c-.47 0-.83.41-.77.88.153 1.073 1.552 2.956 2.267 3.912l-.005-.005s.413.838 1.579 1.734c1.205.927 1.692 1.495 1.96 2.459h-.021c.37 1.06.14 2.28-.71 3.12a3 3 0 0 1-4.24 0l-2.48-2.48c-.41-.41-.97-.64-1.55-.64a6.85 6.85 0 0 1-6.76-5.74.305.305 0 0 0-.31-.26H3.969C2.844 19.99 2 19.563 2 18.063v-7.157C2 9 2.94 8 4.938 8H25.37C27.93 8 30 10.07 30 12.63Z"/></svg>
